public/images/icons/chakra/svadhisthana.svg

<svg xmlns="http://www.w3.org/2000/svg" width="48" height="48" viewBox="0 0 48 48"><g fill="none" stroke="#ff8c00" stroke-width="2"><circle cx="24" cy="24" r="7"/><path d="M24 17c-3-4-3-10 0-14 3 4 3 10 0 14Zm6.1 3.5c2.6-4.4 7.7-7.4 11.8-6-2.6 4.4-7.7 7.4-11.8 6Zm0 7c4.1-1.4 9.2 1.6 11.8 6-4.1 1.4-9.2-1.6-11.8-6ZM24 31c3 4 3 10 0 14-3-4-3-10 0-14Zm-6.1-3.5c-2.6 4.4-7.7 7.4-11.8 6 2.6-4.4 7.7-7.4 11.8-6Zm0-7c-4.1 1.4-9.2-1.6-11.8-6 4.1-1.4 9.2 1.6 11.8 6Z"/></g></svg>

<svg xmlns="http://www.w3.org/2000/svg" viewBox="0 0 48 48" width="48" height="48">
  <g fill="none" stroke="#FF8C00" stroke-width="2">
    <!-- Central circle -->
    <circle cx="24" cy="24" r="7"/>
    <!-- 6-petal lotus (Sacral chakra) - petals at 60 degree intervals -->
    <!-- 0 deg (top) -->
    <path d="M24,17 C21,13 21,7 24,3 C27,7 27,13 24,17Z"/>
    <!-- 60 deg (upper right) -->
    <path d="M30.1,20.5 C32.7,16.1 37.8,13.1 41.9,14.5 C39.3,18.9 34.2,21.9 30.1,20.5Z"/>
    <!-- 120 deg (lower right) -->
    <path d="M30.1,27.5 C34.2,26.1 39.3,29.1 41.9,33.5 C37.8,34.9 32.7,31.9 30.1,27.5Z"/>
    <!-- 180 deg (bottom) -->
    <path d="M24,31 C27,35 27,41 24,45 C21,41 21,35 24,31Z"/>
    <!-- 240 deg (lower left) -->
    <path d="M17.9,27.5 C15.3,31.9 10.2,34.9 6.1,33.5 C8.7,29.1 13.8,26.1 17.9,27.5Z"/>
    <!-- 300 deg (upper left) -->
    <path d="M17.9,20.5 C13.8,21.9 8.7,18.9 6.1,14.5 C10.2,13.1 15.3,16.1 17.9,20.5Z"/>
  </g>
</svg>
